resources/haticons/SVG/nfc.svg

<!-- Generated by IcoMoon.io -->
<svg version="1.1" xmlns="http://www.w3.org/2000/svg" width="24" height="24" viewBox="0 0 24 24">
<title>nfc</title>
<path d="M18 6v12h-12v-12h3.984v2.016h-1.969v7.969h7.969v-7.969h-3v2.25q1.031 0.563 1.031 1.734 0 0.797-0.609 1.406t-1.406 0.609-1.406-0.609-0.609-1.406q0-1.172 1.031-1.734v-2.25q0-0.797 0.586-1.406t1.383-0.609h5.016zM20.016 20.016v-16.031h-16.031v16.031h16.031zM20.016 2.016q0.797 0 1.383 0.586t0.586 1.383v16.031q0 0.797-0.586 1.383t-1.383 0.586h-16.031q-0.797 0-1.383-0.586t-0.586-1.383v-16.031q0-0.797 0.586-1.383t1.383-0.586h16.031z"></path>
</svg>

<svg xmlns="http://www.w3.org/2000/svg" width="24" height="24"><path d="M18 6v12H6V6h3.984v2.016H8.015v7.969h7.969V8.016h-3v2.25q1.031.563 1.031 1.734 0 .797-.609 1.406T12 14.015t-1.406-.609T9.985 12q0-1.172 1.031-1.734v-2.25q0-.797.586-1.406t1.383-.609h5.016zm2.016 14.016V3.985H3.985v16.031h16.031zm0-18q.797 0 1.383.586t.586 1.383v16.031q0 .797-.586 1.383t-1.383.586H3.985q-.797 0-1.383-.586t-.586-1.383V3.985q0-.797.586-1.383t1.383-.586h16.031z"/></svg>
